images/main_banner.svg

<?xml version="1.0" encoding="UTF-8" standalone="no"?>
<svg
   xmlns:dc="http://purl.org/dc/elements/1.1/"
   xmlns:cc="http://creativecommons.org/ns#"
   xmlns:rdf="http://www.w3.org/1999/02/22-rdf-syntax-ns#"
   xmlns:svg="http://www.w3.org/2000/svg"
   xmlns="http://www.w3.org/2000/svg"
   xmlns:sodipodi="http://sodipodi.sourceforge.net/DTD/sodipodi-0.dtd"
   xmlns:inkscape="http://www.inkscape.org/namespaces/inkscape"
   width="860pt"
   version="1.1"
   height="200pt"
   viewBox="0 0 860 200"
   id="svg139"
   sodipodi:docname="main_banner.svg"
   inkscape:version="1.0.1 (3bc2e813f5, 2020-09-07)"
   inkscape:export-filename="/home/iullah/Dropbox/website/isaacullah.github.io/images/main_banner.png"
   inkscape:export-xdpi="300"
   inkscape:export-ydpi="300">
  <metadata
     id="metadata143">
    <rdf:RDF>
      <cc:Work
         rdf:about="">
        <dc:format>image/svg+xml</dc:format>
        <dc:type
           rdf:resource="http://purl.org/dc/dcmitype/StillImage" />
        <dc:title></dc:title>
      </cc:Work>
    </rdf:RDF>
  </metadata>
  <sodipodi:namedview
     pagecolor="#ffffff"
     bordercolor="#666666"
     borderopacity="1"
     objecttolerance="10"
     gridtolerance="10"
     guidetolerance="10"
     inkscape:pageopacity="0"
     inkscape:pageshadow="2"
     inkscape:window-width="1920"
     inkscape:window-height="1016"
     id="namedview141"
     showgrid="false"
     inkscape:zoom="0.87191959"
     inkscape:cx="473.41333"
     inkscape:cy="129.93969"
     inkscape:window-x="0"
     inkscape:window-y="27"
     inkscape:window-maximized="1"
     inkscape:current-layer="svg139"
     inkscape:document-rotation="0" />
  <defs
     id="defs20">
    <rect
       x="-0.61441541"
       y="-0.29977885"
       width="858.02246"
       height="213.53436"
       id="rect147" />
    <path
       id="GlCarme67"
       d="m 1.67484,9.07469 c 0,0 -1.074215,-1.07672 -1.074215,-2.57563 0,0 0,-1.49906 1.074215,-2.57328 0,0 1.07422,-1.07422 2.57328,-1.07422 0,0 1.22063,0 2.22157,0.75688 L 5.88875,4.18938 c 0,0 -0.76172,-0.58094 -1.64063,-0.58094 0,0 -1.13781,0 -1.94343,0.84968 0,0 -0.80563,0.84954 -0.80563,2.04094 0,0 0,1.19141 0.80563,2.0411 0,0 0.80562,0.84953 1.94343,0.84953 0,0 0.89844,0 1.64063,-0.57141 l 0.58094,0.58109 c 0,0 -1.01063,0.75203 -2.22157,0.75203 0,0 -1.49906,0 -2.57328,-1.07671 z" />
    <path
       id="GlCarme79"
       d="m 1.62109,9.08453 c 0,0 -1.020465,-1.06703 -1.020465,-2.58547 0,0 0,-1.51859 1.020465,-2.58297 0,0 1.02047,-1.06453 2.58047,-1.06453 0,0 1.56016,0 2.62953,1.06938 0,0 1.06938,1.06922 1.06938,2.57812 0,0 0,1.50875 -1.06938,2.58063 0,0 -1.06937,1.07171 -2.62953,1.07171 0,0 -1.56,0 -2.58047,-1.06687 z M 2.25828,4.44828 c 0,0 -0.75922,0.83984 -0.75922,2.05078 0,0 0,1.21094 0.75922,2.05078 0,0 0.75938,0.83985 1.94094,0.83985 0,0 1.18172,0 1.99219,-0.84469 0,0 0.81062,-0.84484 0.81062,-2.04594 0,0 0,-1.20125 -0.81062,-2.04594 0,0 -0.81047,-0.84468 -1.99219,-0.84468 0,0 -1.18156,0 -1.94094,0.83984 z" />
    <path
       id="GlCarme77"
       d="M 0.761719,10 V 2.99797 H 1.66016 L 3.80859,6.08891 5.96188,2.99797 H 6.86031 V 10 H 5.96188 V 4.39938 L 4.15047,6.91891 H 3.46188 L 1.66016,4.40922 V 10 Z" />
    <path
       id="GlCarme80"
       d="M 0.859375,10 V 2.99797 H 3.28125 c 0,0 1.00094,0 1.70891,0.68609 0,0 0.70812,0.6861 0.70812,1.64563 0,0 0,0.95937 -0.70812,1.64062 0,0 -0.70797,0.6811 -1.70891,0.6811 H 1.75781 V 10 Z M 1.75781,6.99219 h 1.52344 c 0,0 0.62984,0 1.07422,-0.48578 0,0 0.44437,-0.48594 0.44437,-1.17688 0,0 0,-0.69094 -0.44437,-1.17922 0,0 -0.44438,-0.48828 -1.07422,-0.48828 H 1.75781 Z" />
    <path
       id="GlCarme85"
       d="M 0.859375,7.40234 V 2.99797 H 1.75781 v 4.59969 c 0,0 0,0.43937 0.20016,0.78609 0,0 0.20031,0.34672 0.51516,0.54203 0,0 0.31499,0.19531 0.64703,0.29547 0,0 0.33203,0.1 0.64203,0.1 0,0 0.31015,0 0.63969,-0.1 0,0 0.32953,-0.10016 0.64453,-0.29547 0,0 0.315,-0.19531 0.51515,-0.53953 0,0 0.20016,-0.34422 0.20016,-0.78859 V 2.99797 h 0.89844 v 4.40437 c 0,0 0,0.64938 -0.20516,1.15235 0,0 -0.205,0.50297 -0.51516,0.79343 0,0 -0.31,0.29047 -0.72015,0.48094 0,0 -0.41016,0.19044 -0.75922,0.25644 0,0 -0.34906,0.0659 -0.70063,0.0659 0,0 -0.34187,0 -0.70078,-0.0659 0,0 -0.3589,-0.066 -0.76422,-0.25644 0,0 -0.40515,-0.19047 -0.71531,-0.48578 0,0 -0.31,-0.29547 -0.51515,-0.79828 0,0 -0.205005,-0.50297 -0.205005,-1.14266 z" />
    <path
       id="GlCarme84"
       d="M 0.0976562,3.66203 V 2.99797 H 5.20016 V 3.66203 H 3.10062 V 10 H 2.20219 V 3.66203 Z" />
    <path
       id="GlCarme65"
       d="M 0.400469,10 3.29109,2.99797 H 4.18953 L 7.10938,10 H 6.21094 L 5.22953,7.66109 H 2.26078 L 1.29891,10 Z M 2.53906,7.00188 H 4.96094 L 3.74031,3.92094 Z" />
    <path
       id="GlCarme73"
       d="M 0.859375,10 V 2.99797 H 1.75781 V 10 Z" />
    <path
       id="GlCarme78"
       d="M 0.761719,10 V 2.99797 H 1.66016 L 5.17094,8.50094 V 2.99797 H 6.06937 V 10 H 5.17094 L 1.66016,4.49219 V 10 Z" />
    <path
       id="GlCarme76"
       d="M 0.859375,10 V 2.99797 H 1.75781 v 6.34281 h 3.3936 V 10 Z" />
    <path
       id="GlCarme82"
       d="M 0.859375,10 V 2.99797 H 3.08109 c 0,0 1.01078,0 1.71391,0.63484 0,0 0.70312,0.63469 0.70312,1.59672 0,0 0,0.71766 -0.40296,1.26953 0,0 -0.40282,0.55172 -1.07657,0.79094 L 5.60062,10 H 4.70219 L 3.21781,7.45109 h -1.46 V 10 Z M 1.75781,6.79203 h 1.32328 c 0,0 0.63969,0 1.07907,-0.44187 0,0 0.43953,-0.44203 0.43953,-1.12063 0,0 0,-0.67875 -0.43953,-1.12312 0,0 -0.43938,-0.44438 -1.07907,-0.44438 H 1.75781 Z" />
    <path
       id="GlCarme72"
       d="M 0.859375,10 V 2.99797 H 1.75781 V 6.17188 H 5.25875 V 2.99797 H 6.16219 V 10 H 5.25875 V 6.83109 H 1.75781 V 10 Z" />
    <path
       id="GlCarme69"
       d="M 0.859375,10 V 2.99797 H 5.32234 V 3.63766 H 1.75781 V 5.85938 H 4.72172 V 6.49906 H 1.75781 V 9.36031 H 5.32234 V 10 Z" />
    <path
       id="GlCarme71"
       d="m 1.67484,9.07469 c 0,0 -1.074215,-1.07672 -1.074215,-2.57563 0,0 0,-1.49906 1.074215,-2.57328 0,0 1.07422,-1.07422 2.57328,-1.07422 0,0 1.22063,0 2.22157,0.75688 L 5.88875,4.18938 c 0,0 -0.76172,-0.58094 -1.64063,-0.58094 0,0 -1.13781,0 -1.94343,0.84968 0,0 -0.80563,0.84954 -0.80563,2.04094 0,0 0,1.19141 0.80563,2.0411 0,0 0.80562,0.84953 1.94343,0.84953 0,0 0.97157,0 1.7236,-0.63969 V 7.00188 H 4.62891 V 6.36234 h 2.24125 v 2.67579 c 0,0 -0.30766,0.3075 -0.60063,0.50281 0,0 -0.91797,0.61046 -2.02141,0.61046 0,0 -1.49906,0 -2.57328,-1.07671 z" />
    <path
       id="GlCarme89"
       d="M 0.400469,2.99797 H 1.29891 L 3.11031,6.00094 5.00984,2.99797 H 5.90828 L 3.52047,6.79203 V 10 H 2.68063 V 6.79203 Z" />
    <path
       id="GlCarme68"
       d="M 0.859375,10 V 2.99797 H 3.00781 c 0,0 1.58203,0 2.56594,1.02062 0,0 0.98391,1.02047 0.98391,2.48047 0,0 0,1.45985 -0.98391,2.48047 0,0 -0.98391,1.02047 -2.56594,1.02047 z M 1.75781,9.34078 h 0.85453 c 0,0 0.73235,0 1.28891,-0.19031 0,0 0.55672,-0.19047 0.88391,-0.48094 0,0 0.32718,-0.29062 0.52984,-0.68609 0,0 0.20266,-0.39563 0.27344,-0.74953 0,0 0.07078,-0.35407 0.07078,-0.73485 0,0 0,-0.38093 -0.07078,-0.73484 0,0 -0.07078,-0.35406 -0.27344,-0.74953 0,0 -0.20266,-0.39563 -0.52984,-0.6861 0,0 -0.32719,-0.29047 -0.88625,-0.47843 0,0 -0.55907,-0.18813 -1.28657,-0.18813 H 1.75781 Z" />
    <path
       id="GlCarme83"
       d="m 0.542031,4.59953 c 0,0 0,-0.77141 0.664059,-1.25969 0,0 0.66407,-0.48828 1.53313,-0.48828 0,0 0.66906,0 1.33312,0.30766 0,0 0.21969,0.09765 0.49797,0.3125 L 4.22859,4.20891 c 0,0 -0.21984,-0.17079 -0.45906,-0.29782 0,0 -0.56156,-0.29781 -1.03031,-0.30265 0,0 -0.50781,0 -0.90328,0.26125 0,0 -0.39547,0.26109 -0.39547,0.72984 0,0 0,0.19047 0.07562,0.35172 0,0 0.07578,0.16109 0.26125,0.30266 l 0.28328,0.21968 c 0,0 0.09766,0.07329 0.37344,0.21485 0,0 0.27594,0.14156 0.30516,0.16109 l 0.4639,0.25391 c 0,0 0.33688,0.18562 0.45907,0.26859 l 0.36609,0.24422 c 0,0 0.24906,0.16594 0.35156,0.30031 0,0 0.10266,0.13422 0.23204,0.32953 0,0 0.12937,0.19532 0.17812,0.42485 0,0 0.04891,0.22937 0.04891,0.50781 0,0 0,0.83984 -0.69829,1.40625 0,0 -0.69828,0.5664 -1.60156,0.5664 0,0 -0.75187,0 -1.45015,-0.41999 0,0 -0.30766,-0.18063 -0.546879,-0.42969 L 0.88875,8.54984 c 0,0 0.27828,0.24891 0.55172,0.41985 0,0 0.63969,0.42 1.09859,0.42 0,0 0.5811,0 0.99125,-0.33938 0,0 0.41016,-0.33937 0.41016,-0.87156 0,0 0,-0.46875 -0.34922,-0.83984 0,0 -0.34906,-0.3711 -0.85203,-0.625 L 1.73828,6.19141 c 0,0 -0.49797,-0.2686 -0.847186,-0.67141 0,0 -0.349063,-0.40281 -0.349063,-0.92047 z" />
    <path
       id="GlCarme66"
       d="M 0.859375,10 V 2.99797 H 3.26172 c 0,0 0.62015,0 1.07422,0.17094 0,0 0.45406,0.17093 0.68359,0.45171 0,0 0.22953,0.28079 0.32953,0.55907 0,0 0.10016,0.27828 0.10016,0.57125 0,0 0,0.82031 -0.65922,1.26953 0,0 1.12797,0.53219 1.12797,1.76765 0,0 0,0.97157 -0.68359,1.59172 0,0 -0.6836,0.62016 -1.90422,0.62016 z M 1.75781,9.34078 h 1.40141 c 0,0 1.86031,0 1.86031,-1.55266 0,0 0,-0.70812 -0.42969,-1.03281 0,0 -0.42968,-0.32468 -1.33781,-0.34422 H 1.75781 Z m 0,-3.59859 h 1.33297 c 0,0 0.83016,0 1.145,-0.22703 0,0 0.315,-0.22704 0.315,-0.76422 0,0 0,-0.56156 -0.31984,-0.82516 0,0 -0.31985,-0.26375 -1.14016,-0.26375 0,0 -0.15125,0.00985 -0.46875,0.00985 H 1.75781 Z" />
  </defs>
  <text
     xml:space="preserve"
     id="text145"
     style="font-style:normal;font-weight:normal;font-size:56px;line-height:1.15;font-family:sans-serif;letter-spacing:5.625px;word-spacing:8.775px;white-space:pre;shape-inside:url(#rect147);fill:#000000;fill-opacity:1;stroke:none;"
     x="756.72742"
     y="0"
     transform="translate(0.98128242,3.7790417)"><tspan
       x="12.368492"
       y="46.461171"><tspan
         dx="0 0 0 0 0 0 0 0 0 0 0 0 0 -9.7500153 9.7500153"
         style="word-spacing:9.75px">Computational Archaeology</tspan><tspan
         dx="-8.7750149"
         style="font-style:normal;font-variant:normal;font-weight:normal;font-stretch:normal;font-size:56px;font-family:Electron;-inkscape-font-specification:Electron;text-align:center;text-anchor:middle">
</tspan></tspan><tspan
       x="19.075485"
       y="110.8743"><tspan
         dx="0 0 0 -6 6 0 0 -6 6 0 0 0 0 0 0 0 0 0 0 0 0 0 -6.0000153 5.9999847"
         style="letter-spacing:5.25px;word-spacing:6px">and the Geoarchaeology of</tspan><tspan
         dx="-9.1500149"
         style="font-style:normal;font-variant:normal;font-weight:normal;font-stretch:normal;font-size:56px;font-family:Electron;-inkscape-font-specification:Electron;text-align:center;text-anchor:middle">
</tspan></tspan><tspan
       x="19.039093"
       y="175.28742"><tspan
         dx="0 0 0 0 0 0 0 0 0 0 0 0 -21.000015 21.000015"
         style="font-style:normal;font-variant:normal;font-weight:normal;font-stretch:normal;font-size:56px;font-family:Electron;-inkscape-font-specification:Electron;text-align:center;letter-spacing:6px;word-spacing:21px;text-anchor:middle">Anthropocene Landscapes</tspan></tspan></text>
</svg>

<?xml version="1.0" encoding="UTF-8" standalone="no"?>
<svg
   xmlns:dc="http://purl.org/dc/elements/1.1/"
   xmlns:cc="http://creativecommons.org/ns#"
   xmlns:rdf="http://www.w3.org/1999/02/22-rdf-syntax-ns#"
   xmlns:svg="http://www.w3.org/2000/svg"
   xmlns="http://www.w3.org/2000/svg"
   xmlns:sodipodi="http://sodipodi.sourceforge.net/DTD/sodipodi-0.dtd"
   xmlns:inkscape="http://www.inkscape.org/namespaces/inkscape"
   width="857pt"
   version="1.1"
   height="213pt"
   viewBox="0 0 857 213"
   id="svg139"
   sodipodi:docname="main_banner.svg"
   inkscape:version="1.0.1 (3bc2e813f5, 2020-09-07)"
   inkscape:export-filename="/home/iullah/Dropbox/website/isaacullah.github.io/images/main_banner.png"
   inkscape:export-xdpi="300"
   inkscape:export-ydpi="300">
  <metadata
     id="metadata143">
    <rdf:RDF>
      <cc:Work
         rdf:about="">
        <dc:format>image/svg+xml</dc:format>
        <dc:type
           rdf:resource="http://purl.org/dc/dcmitype/StillImage" />
      </cc:Work>
    </rdf:RDF>
  </metadata>
  <sodipodi:namedview
     pagecolor="#ffffff"
     bordercolor="#666666"
     borderopacity="1"
     objecttolerance="10"
     gridtolerance="10"
     guidetolerance="10"
     inkscape:pageopacity="0"
     inkscape:pageshadow="2"
     inkscape:window-width="1920"
     inkscape:window-height="1016"
     id="namedview141"
     showgrid="false"
     inkscape:zoom="0.87191959"
     inkscape:cx="473.41333"
     inkscape:cy="129.93969"
     inkscape:window-x="0"
     inkscape:window-y="27"
     inkscape:window-maximized="1"
     inkscape:current-layer="svg139"
     inkscape:document-rotation="0" />
  <defs
     id="defs20">
    <rect
       x="-0.61441541"
       y="-0.29977886"
       width="858.02248"
       height="213.53437"
       id="rect147" />
    <path
       id="GlCarme67"
       d="M1.67484 9.07469 C1.67484 9.07469 0.600625 7.99797 0.600625 6.49906 C0.600625 6.49906 0.600625 5 1.67484 3.92578 C1.67484 3.92578 2.74906 2.85156 4.24812 2.85156 C4.24812 2.85156 5.46875 2.85156 6.46969 3.60844 L5.88875 4.18938 C5.88875 4.18938 5.12703 3.60844 4.24812 3.60844 C4.24812 3.60844 3.11031 3.60844 2.30469 4.45812 C2.30469 4.45812 1.49906 5.30766 1.49906 6.49906 C1.49906 6.49906 1.49906 7.69047 2.30469 8.54016 C2.30469 8.54016 3.11031 9.38969 4.24812 9.38969 C4.24812 9.38969 5.14656 9.38969 5.88875 8.81828 L6.46969 9.39937 C6.46969 9.39937 5.45906 10.1514 4.24812 10.1514 C4.24812 10.1514 2.74906 10.1514 1.67484 9.07469 Z" />
    <path
       id="GlCarme79"
       d="M1.62109 9.08453 C1.62109 9.08453 0.600625 8.0175 0.600625 6.49906 C0.600625 6.49906 0.600625 4.98047 1.62109 3.91609 C1.62109 3.91609 2.64156 2.85156 4.20156 2.85156 C4.20156 2.85156 5.76172 2.85156 6.83109 3.92094 C6.83109 3.92094 7.90047 4.99016 7.90047 6.49906 C7.90047 6.49906 7.90047 8.00781 6.83109 9.07969 C6.83109 9.07969 5.76172 10.1514 4.20156 10.1514 C4.20156 10.1514 2.64156 10.1514 1.62109 9.08453 L1.62109 9.08453 Z M2.25828 4.44828 C2.25828 4.44828 1.49906 5.28812 1.49906 6.49906 C1.49906 6.49906 1.49906 7.71 2.25828 8.54984 C2.25828 8.54984 3.01766 9.38969 4.19922 9.38969 C4.19922 9.38969 5.38094 9.38969 6.19141 8.545 C6.19141 8.545 7.00203 7.70016 7.00203 6.49906 C7.00203 6.49906 7.00203 5.29781 6.19141 4.45312 C6.19141 4.45312 5.38094 3.60844 4.19922 3.60844 C4.19922 3.60844 3.01766 3.60844 2.25828 4.44828 Z" />
    <path
       id="GlCarme77"
       d="M0.761719 10 L0.761719 2.99797 L1.66016 2.99797 L3.80859 6.08891 L5.96188 2.99797 L6.86031 2.99797 L6.86031 10 L5.96188 10 L5.96188 4.39938 L4.15047 6.91891 L3.46188 6.91891 L1.66016 4.40922 L1.66016 10 L0.761719 10 Z" />
    <path
       id="GlCarme80"
       d="M0.859375 10 L0.859375 2.99797 L3.28125 2.99797 C3.28125 2.99797 4.28219 2.99797 4.99016 3.68406 C4.99016 3.68406 5.69828 4.37016 5.69828 5.32969 C5.69828 5.32969 5.69828 6.28906 4.99016 6.97031 C4.99016 6.97031 4.28219 7.65141 3.28125 7.65141 L1.75781 7.65141 L1.75781 10 L0.859375 10 L0.859375 10 Z M1.75781 6.99219 L3.28125 6.99219 C3.28125 6.99219 3.91109 6.99219 4.35547 6.50641 C4.35547 6.50641 4.79984 6.02047 4.79984 5.32953 C4.79984 5.32953 4.79984 4.63859 4.35547 4.15031 C4.35547 4.15031 3.91109 3.66203 3.28125 3.66203 L1.75781 3.66203 L1.75781 6.99219 Z" />
    <path
       id="GlCarme85"
       d="M0.859375 7.40234 L0.859375 2.99797 L1.75781 2.99797 L1.75781 7.59766 C1.75781 7.59766 1.75781 8.03703 1.95797 8.38375 C1.95797 8.38375 2.15828 8.73047 2.47313 8.92578 C2.47313 8.92578 2.78812 9.12109 3.12016 9.22125 C3.12016 9.22125 3.45219 9.32125 3.76219 9.32125 C3.76219 9.32125 4.07234 9.32125 4.40188 9.22125 C4.40188 9.22125 4.73141 9.12109 5.04641 8.92578 C5.04641 8.92578 5.36141 8.73047 5.56156 8.38625 C5.56156 8.38625 5.76172 8.04203 5.76172 7.59766 L5.76172 2.99797 L6.66016 2.99797 L6.66016 7.40234 C6.66016 7.40234 6.66016 8.05172 6.455 8.55469 C6.455 8.55469 6.25 9.05766 5.93984 9.34812 C5.93984 9.34812 5.62984 9.63859 5.21969 9.82906 C5.21969 9.82906 4.80953 10.0195 4.46047 10.0855 C4.46047 10.0855 4.11141 10.1514 3.75984 10.1514 C3.75984 10.1514 3.41797 10.1514 3.05906 10.0855 C3.05906 10.0855 2.70016 10.0195 2.29484 9.82906 C2.29484 9.82906 1.88969 9.63859 1.57953 9.34328 C1.57953 9.34328 1.26953 9.04781 1.06438 8.545 C1.06438 8.545 0.859375 8.04203 0.859375 7.40234 Z" />
    <path
       id="GlCarme84"
       d="M0.0976562 3.66203 L0.0976562 2.99797 L5.20016 2.99797 L5.20016 3.66203 L3.10062 3.66203 L3.10062 10 L2.20219 10 L2.20219 3.66203 L0.0976562 3.66203 Z" />
    <path
       id="GlCarme65"
       d="M0.400469 10 L3.29109 2.99797 L4.18953 2.99797 L7.10938 10 L6.21094 10 L5.22953 7.66109 L2.26078 7.66109 L1.29891 10 L0.400469 10 L0.400469 10 Z M2.53906 7.00188 L4.96094 7.00188 L3.74031 3.92094 L2.53906 7.00188 Z" />
    <path
       id="GlCarme73"
       d="M0.859375 10 L0.859375 2.99797 L1.75781 2.99797 L1.75781 10 L0.859375 10 Z" />
    <path
       id="GlCarme78"
       d="M0.761719 10 L0.761719 2.99797 L1.66016 2.99797 L5.17094 8.50094 L5.17094 2.99797 L6.06937 2.99797 L6.06937 10 L5.17094 10 L1.66016 4.49219 L1.66016 10 L0.761719 10 Z" />
    <path
       id="GlCarme76"
       d="M0.859375 10 L0.859375 2.99797 L1.75781 2.99797 L1.75781 9.34078 L5.15141 9.34078 L5.15141 10 L0.859375 10 Z" />
    <path
       id="GlCarme82"
       d="M0.859375 10 L0.859375 2.99797 L3.08109 2.99797 C3.08109 2.99797 4.09187 2.99797 4.795 3.63281 C4.795 3.63281 5.49812 4.2675 5.49812 5.22953 C5.49812 5.22953 5.49812 5.94719 5.09516 6.49906 C5.09516 6.49906 4.69234 7.05078 4.01859 7.29 L5.60062 10 L4.70219 10 L3.21781 7.45109 L1.75781 7.45109 L1.75781 10 L0.859375 10 L0.859375 10 Z M1.75781 6.79203 L3.08109 6.79203 C3.08109 6.79203 3.72078 6.79203 4.16016 6.35016 C4.16016 6.35016 4.59969 5.90813 4.59969 5.22953 C4.59969 5.22953 4.59969 4.55078 4.16016 4.10641 C4.16016 4.10641 3.72078 3.66203 3.08109 3.66203 L1.75781 3.66203 L1.75781 6.79203 Z" />
    <path
       id="GlCarme72"
       d="M0.859375 10 L0.859375 2.99797 L1.75781 2.99797 L1.75781 6.17188 L5.25875 6.17188 L5.25875 2.99797 L6.16219 2.99797 L6.16219 10 L5.25875 10 L5.25875 6.83109 L1.75781 6.83109 L1.75781 10 L0.859375 10 Z" />
    <path
       id="GlCarme69"
       d="M0.859375 10 L0.859375 2.99797 L5.32234 2.99797 L5.32234 3.63766 L1.75781 3.63766 L1.75781 5.85938 L4.72172 5.85938 L4.72172 6.49906 L1.75781 6.49906 L1.75781 9.36031 L5.32234 9.36031 L5.32234 10 L0.859375 10 Z" />
    <path
       id="GlCarme71"
       d="M1.67484 9.07469 C1.67484 9.07469 0.600625 7.99797 0.600625 6.49906 C0.600625 6.49906 0.600625 5 1.67484 3.92578 C1.67484 3.92578 2.74906 2.85156 4.24812 2.85156 C4.24812 2.85156 5.46875 2.85156 6.46969 3.60844 L5.88875 4.18938 C5.88875 4.18938 5.12703 3.60844 4.24812 3.60844 C4.24812 3.60844 3.11031 3.60844 2.30469 4.45812 C2.30469 4.45812 1.49906 5.30766 1.49906 6.49906 C1.49906 6.49906 1.49906 7.69047 2.30469 8.54016 C2.30469 8.54016 3.11031 9.38969 4.24812 9.38969 C4.24812 9.38969 5.21969 9.38969 5.97172 8.75 L5.97172 7.00188 L4.62891 7.00188 L4.62891 6.36234 L6.87016 6.36234 L6.87016 9.03813 C6.87016 9.03813 6.5625 9.34563 6.26953 9.54094 C6.26953 9.54094 5.35156 10.1514 4.24812 10.1514 C4.24812 10.1514 2.74906 10.1514 1.67484 9.07469 Z" />
    <path
       id="GlCarme89"
       d="M0.400469 2.99797 L1.29891 2.99797 L3.11031 6.00094 L5.00984 2.99797 L5.90828 2.99797 L3.52047 6.79203 L3.52047 10 L2.68063 10 L2.68063 6.79203 L0.400469 2.99797 Z" />
    <path
       id="GlCarme68"
       d="M0.859375 10 L0.859375 2.99797 L3.00781 2.99797 C3.00781 2.99797 4.58984 2.99797 5.57375 4.01859 C5.57375 4.01859 6.55766 5.03906 6.55766 6.49906 C6.55766 6.49906 6.55766 7.95891 5.57375 8.97953 C5.57375 8.97953 4.58984 10 3.00781 10 L0.859375 10 L0.859375 10 Z M1.75781 9.34078 L2.61234 9.34078 C2.61234 9.34078 3.34469 9.34078 3.90125 9.15047 C3.90125 9.15047 4.45797 8.96 4.78516 8.66953 C4.78516 8.66953 5.11234 8.37891 5.315 7.98344 C5.315 7.98344 5.51766 7.58781 5.58844 7.23391 C5.58844 7.23391 5.65922 6.87984 5.65922 6.49906 C5.65922 6.49906 5.65922 6.11813 5.58844 5.76422 C5.58844 5.76422 5.51766 5.41016 5.315 5.01469 C5.315 5.01469 5.11234 4.61906 4.78516 4.32859 C4.78516 4.32859 4.45797 4.03812 3.89891 3.85016 C3.89891 3.85016 3.33984 3.66203 2.61234 3.66203 L1.75781 3.66203 L1.75781 9.34078 Z" />
    <path
       id="GlCarme83"
       d="M0.542031 4.59953 C0.542031 4.59953 0.542031 3.82812 1.20609 3.33984 C1.20609 3.33984 1.87016 2.85156 2.73922 2.85156 C2.73922 2.85156 3.40828 2.85156 4.07234 3.15922 C4.07234 3.15922 4.29203 3.25687 4.57031 3.47172 L4.22859 4.20891 C4.22859 4.20891 4.00875 4.03812 3.76953 3.91109 C3.76953 3.91109 3.20797 3.61328 2.73922 3.60844 C2.73922 3.60844 2.23141 3.60844 1.83594 3.86969 C1.83594 3.86969 1.44047 4.13078 1.44047 4.59953 C1.44047 4.59953 1.44047 4.79 1.51609 4.95125 C1.51609 4.95125 1.59187 5.11234 1.77734 5.25391 L2.06062 5.47359 C2.06062 5.47359 2.15828 5.54688 2.43406 5.68844 C2.43406 5.68844 2.71 5.83 2.73922 5.84953 L3.20312 6.10344 C3.20312 6.10344 3.54 6.28906 3.66219 6.37203 L4.02828 6.61625 C4.02828 6.61625 4.27734 6.78219 4.37984 6.91656 C4.37984 6.91656 4.4825 7.05078 4.61188 7.24609 C4.61188 7.24609 4.74125 7.44141 4.79 7.67094 C4.79 7.67094 4.83891 7.90031 4.83891 8.17875 C4.83891 8.17875 4.83891 9.01859 4.14062 9.585 C4.14062 9.585 3.44234 10.1514 2.53906 10.1514 C2.53906 10.1514 1.78719 10.1514 1.08891 9.73141 C1.08891 9.73141 0.78125 9.55078 0.542031 9.30172 L0.88875 8.54984 C0.88875 8.54984 1.16703 8.79875 1.44047 8.96969 C1.44047 8.96969 2.08016 9.38969 2.53906 9.38969 C2.53906 9.38969 3.12016 9.38969 3.53031 9.05031 C3.53031 9.05031 3.94047 8.71094 3.94047 8.17875 C3.94047 8.17875 3.94047 7.71 3.59125 7.33891 C3.59125 7.33891 3.24219 6.96781 2.73922 6.71391 L1.73828 6.19141 C1.73828 6.19141 1.24031 5.92281 0.891094 5.52 C0.891094 5.52 0.542031 5.11719 0.542031 4.59953 Z" />
    <path
       id="GlCarme66"
       d="M0.859375 10 L0.859375 2.99797 L3.26172 2.99797 C3.26172 2.99797 3.88187 2.99797 4.33594 3.16891 C4.33594 3.16891 4.79 3.33984 5.01953 3.62062 C5.01953 3.62062 5.24906 3.90141 5.34906 4.17969 C5.34906 4.17969 5.44922 4.45797 5.44922 4.75094 C5.44922 4.75094 5.44922 5.57125 4.79 6.02047 C4.79 6.02047 5.91797 6.55266 5.91797 7.78812 C5.91797 7.78812 5.91797 8.75969 5.23438 9.37984 C5.23438 9.37984 4.55078 10 3.33016 10 L0.859375 10 L0.859375 10 Z M1.75781 9.34078 L3.15922 9.34078 C3.15922 9.34078 5.01953 9.34078 5.01953 7.78812 C5.01953 7.78812 5.01953 7.08 4.58984 6.75531 C4.58984 6.75531 4.16016 6.43063 3.25203 6.41109 L1.75781 6.41109 L1.75781 9.34078 L1.75781 9.34078 Z M1.75781 5.74219 L3.09078 5.74219 C3.09078 5.74219 3.92094 5.74219 4.23578 5.51516 C4.23578 5.51516 4.55078 5.28812 4.55078 4.75094 C4.55078 4.75094 4.55078 4.18938 4.23094 3.92578 C4.23094 3.92578 3.91109 3.66203 3.09078 3.66203 C3.09078 3.66203 2.93953 3.67188 2.62203 3.67188 L1.75781 3.67188 L1.75781 5.74219 Z" />
  </defs>
  <text
     xml:space="preserve"
     id="text145"
     style="font-style:normal;font-weight:normal;font-size:56px;line-height:1.25;font-family:sans-serif;letter-spacing:5.7525001px;word-spacing:8.775px;white-space:pre;shape-inside:url(#rect147);fill:#000000;fill-opacity:1;stroke:none;"
     x="756.72742"
     y="0"><tspan
       x="11.325992"
       y="49.261172"><tspan
         dx="0 0 0 0 0 0 0 0 0 0 0 0 0 -8.775013 8.7750111 0 0 0 0 0 0 0 0 0 0 -8.775013"
         style="font-style:normal;font-variant:normal;font-weight:normal;font-stretch:normal;font-size:56px;font-family:Electron;-inkscape-font-specification:Electron;text-align:center;text-anchor:middle">Computational Archaeology
</tspan></tspan><tspan
       x="8.6954851"
       y="119.27429"><tspan
         dx="0 0 0 -8.7749977 8.7750034 0 0 -8.7749977 8.7750111 0 0 0 0 0 0 0 0 0 0 0 0 0 -8.775013 8.7750111 0 -8.775013"
         style="font-style:normal;font-variant:normal;font-weight:normal;font-stretch:normal;font-size:56px;font-family:Electron;-inkscape-font-specification:Electron;text-align:center;text-anchor:middle">and the Geoarchaeology of
</tspan></tspan><tspan
       x="27.874093"
       y="189.28742"><tspan
         dx="0 0 0 0 0 0 0 0 0 0 0 0 -8.7749825 8.7749805"
         style="font-style:normal;font-variant:normal;font-weight:normal;font-stretch:normal;font-size:56px;font-family:Electron;-inkscape-font-specification:Electron;text-align:center;text-anchor:middle">Anthropocene Landscapes</tspan></tspan></text>
</svg>
